X:3625
L:1/8
Q:3/8=120
M:6/8
K:Emin
 g | dBB BAB | dBB B2 g | dBB BAB | GEE E2 g | dBB BAB | dBB BAG | AAG BAB | GEE E2 :| g | 
 gfg aga | bag fed | gfg aga | bge e2 (g/a/) | bab aga | gef g2 e | dBB BAB | GEE E2 :|

